public/img/lunch.svg

<?xml version="1.0" encoding="UTF-8"?><svg id="Layer_1" xmlns="http://www.w3.org/2000/svg" xmlns:xlink="http://www.w3.org/1999/xlink" viewBox="0 0 920.96 1994.18"><defs><style>.cls-1{fill:url(#linear-gradient-2);}.cls-2,.cls-3{fill:#fff;}.cls-3{opacity:.12;}.cls-4{opacity:.5;}.cls-5{fill:url(#linear-gradient-6);}.cls-6{fill:#f4f2e9;}.cls-7,.cls-8,.cls-9{opacity:.2;}.cls-10{opacity:.35;}.cls-8,.cls-11,.cls-12{fill:#ffff9b;}.cls-13{fill:#ffde82;}.cls-14{fill:url(#linear-gradient-10);}.cls-15,.cls-16{opacity:.15;}.cls-17,.cls-12{opacity:.4;}.cls-18{fill:#c9eff2;}.cls-16{fill:url(#linear-gradient-11);}.cls-19{fill:url(#linear-gradient-5);}.cls-20{fill:#d0f4f7;}.cls-9{fill:#aed097;}.cls-21{fill:#b6e8ff;}.cls-22{fill:url(#linear-gradient-7);}.cls-23{opacity:.6;}.cls-24{fill:url(#linear-gradient-3);}.cls-25{fill:url(#linear-gradient);}.cls-26{fill:#ffbf8a;}.cls-27{fill:url(#linear-gradient-9);opacity:.8;}.cls-28{fill:url(#linear-gradient-4);}.cls-29{fill:url(#linear-gradient-8);}</style><linearGradient id="linear-gradient" x1="460.48" y1="-374.34" x2="460.48" y2="2046.85" gradientUnits="userSpaceOnUse"><stop offset="0" stop-color="#69aeff"/><stop offset=".19" stop-color="#71b6ff"/><stop offset=".5" stop-color="#88cfff"/><stop offset=".76" stop-color="#a1e8ff"/><stop offset=".82" stop-color="#a4e9fc"/><stop offset=".87" stop-color="#afecf5"/><stop offset=".92" stop-color="#c2f1e9"/><stop offset=".97" stop-color="#dcf9d8"/><stop offset="1" stop-color="#eeffcd"/></linearGradient><linearGradient id="linear-gradient-2" x1="861.67" y1="498.85" x2="920.96" y2="498.85" gradientUnits="userSpaceOnUse"><stop offset="0" stop-color="#fff" stop-opacity="0"/><stop offset=".36" stop-color="#fff" stop-opacity=".45"/><stop offset=".82" stop-color="#fff"/></linearGradient><linearGradient id="linear-gradient-3" x1="407.05" y1="20.1" x2="459.24" y2="20.1" gradientUnits="userSpaceOnUse"><stop offset=".18" stop-color="#fff"/><stop offset=".64" stop-color="#fff" stop-opacity=".45"/><stop offset="1" stop-color="#fff" stop-opacity="0"/></linearGradient><linearGradient id="linear-gradient-4" x1="428.48" y1="29.34" x2="498.07" y2="29.34" gradientUnits="userSpaceOnUse"><stop offset=".18" stop-color="#fff"/><stop offset=".64" stop-color="#fff" stop-opacity=".45"/><stop offset="1" stop-color="#fff" stop-opacity="0"/></linearGradient><linearGradient id="linear-gradient-5" x1="884.92" y1="219.28" x2="921.44" y2="219.28" gradientUnits="userSpaceOnUse"><stop offset="0" stop-color="#fff" stop-opacity="0"/><stop offset=".36" stop-color="#fff" stop-opacity=".45"/><stop offset=".82" stop-color="#fff"/></linearGradient><linearGradient id="linear-gradient-6" x1="874.93" y1="94.86" x2="921.62" y2="94.86" gradientUnits="userSpaceOnUse"><stop offset="0" stop-color="#fff" stop-opacity="0"/><stop offset=".36" stop-color="#fff" stop-opacity=".45"/><stop offset=".82" stop-color="#fff"/></linearGradient><linearGradient id="linear-gradient-7" x1=".61" y1="528.96" x2="354.56" y2="528.96" gradientUnits="userSpaceOnUse"><stop offset=".18" stop-color="#fff"/><stop offset=".64" stop-color="#fff" stop-opacity=".45"/><stop offset="1" stop-color="#fff" stop-opacity="0"/></linearGradient><linearGradient id="linear-gradient-8" x1="1.31" y1="912.46" x2="173.69" y2="912.46" gradientUnits="userSpaceOnUse"><stop offset=".18" stop-color="#fff"/><stop offset=".64" stop-color="#fff" stop-opacity=".45"/><stop offset="1" stop-color="#fff" stop-opacity="0"/></linearGradient><linearGradient id="linear-gradient-9" x1="83.77" y1="2298.41" x2="83.77" y2="1326.71" gradientUnits="userSpaceOnUse"><stop offset="0" stop-color="#d0f4f7"/><stop offset=".13" stop-color="#c8ece2"/><stop offset=".37" stop-color="#bddfc1"/><stop offset=".6" stop-color="#b4d7aa"/><stop offset=".82" stop-color="#afd19b"/><stop offset="1" stop-color="#aed097"/></linearGradient><linearGradient id="linear-gradient-10" x1="428.63" y1="1744.67" x2="437.79" y2="2101.87" gradientUnits="userSpaceOnUse"><stop offset="0" stop-color="#f4f2e9"/><stop offset=".38" stop-color="#e7e0d4"/><stop offset="1" stop-color="#d6c7b6"/></linearGradient><linearGradient id="linear-gradient-11" x1="460.48" y1="-63.94" x2="460.48" y2="1972.72" gradientUnits="userSpaceOnUse"><stop offset="0" stop-color="#80b3f9" stop-opacity=".2"/><stop offset=".62" stop-color="#80b3f9" stop-opacity=".71"/><stop offset="1" stop-color="#80b4f9"/></linearGradient></defs><g id="Layer_41"><rect class="cls-25" x="0" y="-.02" width="920.96" height="1994.18"/><g class="cls-4"><path class="cls-1" d="M920.96,524.28v2.36c-.25,0-.49-.09-.68-.26l-58.31-53.7c-.38-.35-.41-.95-.05-1.33,.35-.38,.95-.41,1.33-.05l57.71,52.98Z"/></g><g class="cls-4"><path class="cls-24" d="M459.03,39.85c-.32,.4-.92,.48-1.33,.15L407.05-.02h3.21l48.62,38.54c.4,.33,.48,.92,.15,1.33Z"/></g><g class="cls-17"><path class="cls-28" d="M489.69,57.72c-.38,.36-.9,.35-1.26,.01L427.74,.68h24.03l38.06,55.37c.35,.51,.29,1.26-.14,1.67Z"/></g><g class="cls-10"><path class="cls-19" d="M920.92,214.31v3.79l-35.37,6.13c-.31,.05-.59-.33-.63-.87-.04-.55,.18-1.05,.5-1.12l35.49-7.93Z"/></g><g class="cls-7"><path class="cls-5" d="M920.96,74.13v4.83l-44.39,36.4c-.42,.33-1.04,.28-1.4-.12-.36-.42-.31-1.06,.1-1.42l45.69-39.69Z"/></g><g class="cls-7"><path class="cls-22" d="M339.16,440.91L7.16,616.97c-2.29,1.22-4.73,1.84-7.16,1.92v-34.91l338.3-144.87c.51-.22,1.09,.02,1.31,.52,.21,.49,0,1.04-.45,1.28Z"/></g><g class="cls-15"><path class="cls-29" d="M153.07,819.48L7.08,1001.19c-2.01,2.49-4.43,4.45-7.08,5.88v-59.87l151.63-129.11c.42-.36,1.05-.31,1.41,.11,.32,.38,.32,.91,.03,1.28Z"/></g><path class="cls-3" d="M920.96,910.48v743.57H396.12c-15.73,0-30.03-8.94-37.12-22.99-9.8-19.41-15.31-41.34-15.31-64.56,0-65.42,43.79-120.62,103.65-137.9,15.14-4.37,23.14-20.77,16.87-35.23-10.7-24.72-18.02-51.26-21.38-79.01-1.46-11.96-2.18-24.16-2.11-36.53,.02-4.24,.14-8.46,.35-12.65,3.48-70.33,32.61-134.2,78.14-182.43,26.48-28.04,58.49-50.79,94.24-66.45,35.06-15.36,73.71-23.89,114.23-23.91,6.74,0,13.4,.24,20.01,.7,36.54-50.22,95.78-82.89,162.65-82.89,3.56,0,7.1,.09,10.62,.28Z"/><g class="cls-23"><path class="cls-2" d="M355.51,781.09c41.56,49.89,79.94,103.22,116.78,156.62,100.71,147.83,189.4,304.85,264.93,467.03,62.9,134.23,116.73,274.15,161.07,415.64,8.24,28.05,18.27,59.74,25.79,87.98,0,0,12.87,47.18,12.87,47.18,0,0,1.61,5.9,1.61,5.9,4.95,19.64,11.22,45.59,16.12,65.29,4.41,17.35,12.06,54.08,16.02,71.6,0,0,2.62,11.94,2.62,11.94,.43,1.99,.9,3.98,1.29,5.98,0,0,1.15,6,1.15,6,3.29,17.05,10.54,55,13.83,72.06,0,0-9.73,1.7-9.73,1.7-3.2-17.1-10.34-55.68-13.38-71.91-1.11-6.5-3.51-17.25-4.91-23.88-3.87-17.61-11.43-54.84-15.56-71.47-5.42-22.08-11.59-49.24-17.27-71.09-4.65-17.2-14.33-54.26-18.96-70.66-5.01-17.02-12.16-41.6-17.13-58.52-38.84-127.92-85.87-254.92-140.06-377.1-95.56-215.39-212.37-422.55-352.7-612.02-13.67-18.01-30.5-40.2-45.15-57.64,0,0,.76-.65,.76-.65h0Z"/></g><path class="cls-21" d="M825.46,1718.93c0,17.67-2.18,34.81-6.28,51.2-4.39,17.59-11,34.3-19.51,49.82-7.6,13.83-22.1,22.44-37.89,22.44H0v-615.33c35.15-22.9,77.13-36.2,122.2-36.2,58.77,0,112.25,22.62,152.24,59.6,8.03,7.44,19.64,9.46,29.78,5.3,30.97-12.69,64.88-19.69,100.44-19.69,12.35,0,24.51,.85,36.41,2.49,44.8,6.15,86.03,23.52,120.77,49.18,45.03,33.25,79.15,80.43,96,135.18,7.59,24.66,11.68,50.86,11.68,78.01,0,4.21,1.32,8.22,3.65,11.52,2.33,3.29,5.66,5.87,9.65,7.23,24.82,8.44,47.56,21.39,67.24,37.87,22.77,19.07,41.45,42.86,54.51,69.88,13.39,27.66,20.89,58.7,20.89,91.5Z"/><path class="cls-20" d="M920.96,1388.82v394.95H307.41c-.13-.23-.27-.45-.41-.68-12.72-21.29-19.92-46.28-19.57-72.97,.99-77.88,65.24-139.34,143.09-137.02,15.09,.45,29.57,3.31,43.08,8.2,5.46,1.98,11.16-.91,12.63-6.53,.59-2.24,1.24-4.46,1.97-6.64,9.3-28.18,29.61-51.34,55.85-64.41,5.51-2.74,9.36-8.01,10.07-14.11,6.97-59.38,48.39-108.22,103.72-125.99,9.04-2.9,18.45-4.98,28.14-6.14,2.93-.35,5.88-.62,8.86-.8,2.97-.18,5.96-.27,8.98-.27h.24c39.57,0,75.57,15.22,102.49,40.12,5.42,5.01,13.23,6.37,20.06,3.57,20.85-8.55,43.68-13.27,67.62-13.27,9.08,0,18.01,.68,26.73,1.99Z"/><g class="cls-23"><path class="cls-2" d="M301.7,715.41l-12.15,30.87c-.17,.44-.21,.92-.1,1.38l.08,.34c.21,.9,1.37,1.15,1.94,.43l18.52-23.35-8.3-9.67Z"/><path class="cls-2" d="M306.18,711.56l32.36-7.32c.46-.1,.94-.06,1.38,.11l.33,.13c.85,.35,.93,1.53,.13,1.99l-25.89,14.76-8.3-9.67Z"/><path class="cls-2" d="M328.07,741.6h0c-1.46,1.25-3.64,1.14-4.97-.25l-29.61-31.01c-2.16-2.46-1.89-6.22,.6-8.35h0c2.49-2.13,6.23-1.83,8.34,.68l26.15,33.98c1.17,1.52,.95,3.7-.51,4.95Z"/></g><path class="cls-9" d="M221.53,1732.67s296.9-99.99,354.15-99.22,136.62,38.16,169.44,44.27c32.82,6.11-523.59,54.95-523.59,54.95Z"/><g><path class="cls-27" d="M344.85,1670.85s-302.25-138.91-450.32-141.96c-148.07-3.05-21.37,471.69-21.37,471.69l421.31,16.79,50.37-346.52Z"/><path class="cls-26" d="M964.4,1845.38l-21.04-197.97,2.67-168.13-59.02,21.37v12.25c-43.06,7.67-110.07,20.99-152.52,36.22,0,0-62.59-20.61-149.98,3.05,0,0-129.21-29.95-136.78-31.62-7.48-1.66-14.64-3.18-21.19-4.48l-.02-11.09-48.85-17.3-109.91,44.01v33.52c-23.75,.8-45.21,5.05-53.9,6.99-2.42,.54-4.15,2.65-4.22,5.12l-.9,254.07,59.02-4.51v8.08l159.26,7.89-.02-16.31,460.01,16.14v10.86l52.92,10.18,.3-19.17,24.17,.85Z"/><polygon class="cls-18" points="568.86 1546.19 568.86 1720.46 407.05 1719.02 415.45 1506.5 568.86 1546.19"/><polygon class="cls-18" points="743.94 1542.37 894.66 1503.7 896.68 1714.87 747.81 1719.45 743.94 1542.37"/><rect class="cls-13" x="602.91" y="1628.53" width="15.94" height="155.19"/><rect class="cls-13" x="700.1" y="1627.77" width="15.94" height="155.19"/><polygon class="cls-18" points="416.98 1872.35 384.79 1872.35 384.79 1510.06 416.98 1519.22 416.98 1872.35"/><path class="cls-6" d="M585.1,1546.7v87.18s101.68-11.7,150.02-2.37v-87.52s-68.44-20.35-150.02,2.71Z"/><path class="cls-14" d="M-53.31,1837.75s810.06-87.52,1038.02-93.63l14.25,462.02-1117.4-16.28,65.13-352.11Z"/></g><rect class="cls-16" x="0" y="0" width="920.96" height="1994.18"/><g><circle class="cls-8" cx="661.41" cy="271.31" r="189.92"/><circle class="cls-12" cx="661.41" cy="271.31" r="158.27"/><circle class="cls-11" cx="661.41" cy="271.31" r="109.91"/></g></g></svg>

<svg width="921" height="1995" viewBox="0 0 921 1995" fill="none" xmlns="http://www.w3.org/2000/svg">
<g clip-path="url(#clip0_68_127)">
<path d="M920.96 -0.0200195H0V1994.16H920.96V-0.0200195Z" fill="url(#paint0_linear_68_127)"/>
<g opacity="0.5">
<path d="M920.96 524.28V526.64C920.71 526.64 920.47 526.55 920.28 526.38L861.97 472.68C861.59 472.33 861.56 471.73 861.92 471.35C862.27 470.97 862.87 470.94 863.25 471.3L920.96 524.28Z" fill="url(#paint1_linear_68_127)"/>
</g>
<g opacity="0.5">
<path d="M459.03 39.85C458.71 40.25 458.11 40.33 457.7 40L407.05 -0.0200195H410.26L458.88 38.52C459.28 38.85 459.36 39.44 459.03 39.85Z" fill="url(#paint2_linear_68_127)"/>
</g>
<g opacity="0.4">
<path d="M489.69 57.7199C489.31 58.0799 488.79 58.0699 488.43 57.7299L427.74 0.679932H451.77L489.83 56.0499C490.18 56.5599 490.12 57.3099 489.69 57.7199Z" fill="url(#paint3_linear_68_127)"/>
</g>
<g opacity="0.35">
<path d="M920.92 214.31V218.1L885.55 224.23C885.24 224.28 884.96 223.9 884.92 223.36C884.88 222.81 885.1 222.31 885.42 222.24L920.91 214.31H920.92Z" fill="url(#paint4_linear_68_127)"/>
</g>
<g opacity="0.2">
<path d="M920.96 74.1299V78.9599L876.57 115.36C876.15 115.69 875.53 115.64 875.17 115.24C874.81 114.82 874.86 114.18 875.27 113.82L920.96 74.1299Z" fill="url(#paint5_linear_68_127)"/>
</g>
<g opacity="0.2">
<path d="M339.16 440.91L7.16 616.97C4.87 618.19 2.43 618.81 0 618.89V583.98L338.3 439.11C338.81 438.89 339.39 439.13 339.61 439.63C339.82 440.12 339.61 440.67 339.16 440.91Z" fill="url(#paint6_linear_68_127)"/>
</g>
<g opacity="0.15">
<path d="M153.07 819.48L7.08 1001.19C5.07 1003.68 2.65 1005.64 0 1007.07V947.2L151.63 818.09C152.05 817.73 152.68 817.78 153.04 818.2C153.36 818.58 153.36 819.11 153.07 819.48Z" fill="url(#paint7_linear_68_127)"/>
</g>
<path opacity="0.12" d="M920.96 910.48V1654.05H396.12C380.39 1654.05 366.09 1645.11 359 1631.06C349.2 1611.65 343.69 1589.72 343.69 1566.5C343.69 1501.08 387.48 1445.88 447.34 1428.6C462.48 1424.23 470.48 1407.83 464.21 1393.37C453.51 1368.65 446.19 1342.11 442.83 1314.36C441.37 1302.4 440.65 1290.2 440.72 1277.83C440.74 1273.59 440.86 1269.37 441.07 1265.18C444.55 1194.85 473.68 1130.98 519.21 1082.75C545.69 1054.71 577.7 1031.96 613.45 1016.3C648.51 1000.94 687.16 992.41 727.68 992.39C734.42 992.39 741.08 992.63 747.69 993.09C784.23 942.87 843.47 910.2 910.34 910.2C913.9 910.2 917.44 910.29 920.96 910.48Z" fill="white"/>
<g opacity="0.6">
<path d="M355.51 781.09C397.07 830.98 435.45 884.31 472.29 937.71C573 1085.54 661.69 1242.56 737.22 1404.74C800.12 1538.97 853.95 1678.89 898.29 1820.38C906.53 1848.43 916.56 1880.12 924.08 1908.36L936.95 1955.54L938.56 1961.44C943.51 1981.08 949.78 2007.03 954.68 2026.73C959.09 2044.08 966.74 2080.81 970.7 2098.33L973.32 2110.27C973.75 2112.26 974.22 2114.25 974.61 2116.25L975.76 2122.25C979.05 2139.3 986.3 2177.25 989.59 2194.31L979.86 2196.01C976.66 2178.91 969.52 2140.33 966.48 2124.1C965.37 2117.6 962.97 2106.85 961.57 2100.22C957.7 2082.61 950.14 2045.38 946.01 2028.75C940.59 2006.67 934.42 1979.51 928.74 1957.66C924.09 1940.46 914.41 1903.4 909.78 1887C904.77 1869.98 897.62 1845.4 892.65 1828.48C853.81 1700.56 806.78 1573.56 752.59 1451.38C657.03 1235.99 540.22 1028.83 399.89 839.36C386.22 821.35 369.39 799.16 354.74 781.72L355.5 781.07L355.51 781.09Z" fill="white"/>
</g>
<path d="M825.46 1718.93C825.46 1736.6 823.28 1753.74 819.18 1770.13C814.79 1787.72 808.18 1804.43 799.67 1819.95C792.07 1833.78 777.57 1842.39 761.78 1842.39H0V1227.06C35.15 1204.16 77.13 1190.86 122.2 1190.86C180.97 1190.86 234.45 1213.48 274.44 1250.46C282.47 1257.9 294.08 1259.92 304.22 1255.76C335.19 1243.07 369.1 1236.07 404.66 1236.07C417.01 1236.07 429.17 1236.92 441.07 1238.56C485.87 1244.71 527.1 1262.08 561.84 1287.74C606.87 1320.99 640.99 1368.17 657.84 1422.92C665.43 1447.58 669.52 1473.78 669.52 1500.93C669.52 1505.14 670.84 1509.15 673.17 1512.45C675.5 1515.74 678.83 1518.32 682.82 1519.68C707.64 1528.12 730.38 1541.07 750.06 1557.55C772.83 1576.62 791.51 1600.41 804.57 1627.43C817.96 1655.09 825.46 1686.13 825.46 1718.93Z" fill="#B6E8FF"/>
<path d="M920.96 1388.82V1783.77H307.41C307.28 1783.54 307.14 1783.32 307 1783.09C294.28 1761.8 287.08 1736.81 287.43 1710.12C288.42 1632.24 352.67 1570.78 430.52 1573.1C445.61 1573.55 460.09 1576.41 473.6 1581.3C479.06 1583.28 484.76 1580.39 486.23 1574.77C486.82 1572.53 487.47 1570.31 488.2 1568.13C497.5 1539.95 517.81 1516.79 544.05 1503.72C549.56 1500.98 553.41 1495.71 554.12 1489.61C561.09 1430.23 602.51 1381.39 657.84 1363.62C666.88 1360.72 676.29 1358.64 685.98 1357.48C688.91 1357.13 691.86 1356.86 694.84 1356.68C697.81 1356.5 700.8 1356.41 703.82 1356.41H704.06C743.63 1356.41 779.63 1371.63 806.55 1396.53C811.97 1401.54 819.78 1402.9 826.61 1400.1C847.46 1391.55 870.29 1386.83 894.23 1386.83C903.31 1386.83 912.24 1387.51 920.96 1388.82Z" fill="#D0F4F7"/>
<g opacity="0.6">
<path d="M301.7 715.41L289.55 746.28C289.38 746.72 289.34 747.2 289.45 747.66L289.53 748C289.74 748.9 290.9 749.15 291.47 748.43L309.99 725.08L301.69 715.41H301.7Z" fill="white"/>
<path d="M306.18 711.56L338.54 704.24C339 704.14 339.48 704.18 339.92 704.35L340.25 704.48C341.1 704.83 341.18 706.01 340.38 706.47L314.49 721.23L306.19 711.56H306.18Z" fill="white"/>
<path d="M328.07 741.6C326.61 742.85 324.43 742.74 323.1 741.35L293.49 710.34C291.33 707.88 291.6 704.12 294.09 701.99C296.58 699.86 300.32 700.16 302.43 702.67L328.58 736.65C329.75 738.17 329.53 740.35 328.07 741.6Z" fill="white"/>
</g>
<path opacity="0.2" d="M221.53 1732.67C221.53 1732.67 518.43 1632.68 575.68 1633.45C632.93 1634.22 712.3 1671.61 745.12 1677.72C777.94 1683.83 221.53 1732.67 221.53 1732.67Z" fill="#AED097"/>
<path opacity="0.8" d="M344.85 1670.85C344.85 1670.85 42.5999 1531.94 -105.47 1528.89C-253.54 1525.84 -126.84 2000.58 -126.84 2000.58L294.47 2017.37L344.84 1670.85H344.85Z" fill="url(#paint8_linear_68_127)"/>
<path d="M964.4 1845.38L943.36 1647.41L946.03 1479.28L887.01 1500.65V1512.9C843.95 1520.57 776.94 1533.89 734.49 1549.12C734.49 1549.12 671.9 1528.51 584.51 1552.17C584.51 1552.17 455.3 1522.22 447.73 1520.55C440.25 1518.89 433.09 1517.37 426.54 1516.07L426.52 1504.98L377.67 1487.68L267.76 1531.69V1565.21C244.01 1566.01 222.55 1570.26 213.86 1572.2C211.44 1572.74 209.71 1574.85 209.64 1577.32L208.74 1831.39L267.76 1826.88V1834.96L427.02 1842.85L427 1826.54L887.01 1842.68V1853.54L939.93 1863.72L940.23 1844.55L964.4 1845.4V1845.38Z" fill="#FFBF8A"/>
<path d="M568.86 1546.19V1720.46L407.05 1719.02L415.45 1506.5L568.86 1546.19Z" fill="#C9EFF2"/>
<path d="M743.94 1542.37L894.66 1503.7L896.68 1714.87L747.81 1719.45L743.94 1542.37Z" fill="#C9EFF2"/>
<path d="M618.85 1628.53H602.91V1783.72H618.85V1628.53Z" fill="#FFDE82"/>
<path d="M716.04 1627.77H700.1V1782.96H716.04V1627.77Z" fill="#FFDE82"/>
<path d="M416.98 1872.35H384.79V1510.06L416.98 1519.22V1872.35Z" fill="#C9EFF2"/>
<path d="M585.1 1546.7V1633.88C585.1 1633.88 686.78 1622.18 735.12 1631.51V1543.99C735.12 1543.99 666.68 1523.64 585.1 1546.7Z" fill="#F4F2E9"/>
<path d="M-53.3099 1837.75C-53.3099 1837.75 756.75 1750.23 984.71 1744.12L998.96 2206.14L-118.44 2189.86L-53.3099 1837.75Z" fill="url(#paint9_linear_68_127)"/>
<path opacity="0.15" d="M920.96 0H0V1994.18H920.96V0Z" fill="url(#paint10_linear_68_127)"/>
<path opacity="0.2" d="M661.41 461.23C766.3 461.23 851.33 376.2 851.33 271.31C851.33 166.42 766.3 81.3899 661.41 81.3899C556.52 81.3899 471.49 166.42 471.49 271.31C471.49 376.2 556.52 461.23 661.41 461.23Z" fill="#FFFF9B"/>
<path opacity="0.4" d="M661.41 429.58C748.82 429.58 819.68 358.72 819.68 271.31C819.68 183.9 748.82 113.04 661.41 113.04C573.999 113.04 503.14 183.9 503.14 271.31C503.14 358.72 573.999 429.58 661.41 429.58Z" fill="#FFFF9B"/>
<path d="M661.41 381.22C722.112 381.22 771.32 332.012 771.32 271.31C771.32 210.608 722.112 161.4 661.41 161.4C600.708 161.4 551.5 210.608 551.5 271.31C551.5 332.012 600.708 381.22 661.41 381.22Z" fill="#FFFF9B"/>
</g>
<defs>
<linearGradient id="paint0_linear_68_127" x1="460.48" y1="-374.34" x2="460.48" y2="2046.85" gradientUnits="userSpaceOnUse">
<stop stop-color="#69AEFF"/>
<stop offset="0.19" stop-color="#71B6FF"/>
<stop offset="0.5" stop-color="#88CFFF"/>
<stop offset="0.76" stop-color="#A1E8FF"/>
<stop offset="0.82" stop-color="#A4E9FC"/>
<stop offset="0.87" stop-color="#AFECF5"/>
<stop offset="0.92" stop-color="#C2F1E9"/>
<stop offset="0.97" stop-color="#DCF9D8"/>
<stop offset="1" stop-color="#EEFFCD"/>
</linearGradient>
<linearGradient id="paint1_linear_68_127" x1="861.67" y1="498.85" x2="920.96" y2="498.85" gradientUnits="userSpaceOnUse">
<stop stop-color="white" stop-opacity="0"/>
<stop offset="0.36" stop-color="white" stop-opacity="0.45"/>
<stop offset="0.82" stop-color="white"/>
</linearGradient>
<linearGradient id="paint2_linear_68_127" x1="407.05" y1="20.1" x2="459.24" y2="20.1" gradientUnits="userSpaceOnUse">
<stop offset="0.18" stop-color="white"/>
<stop offset="0.64" stop-color="white" stop-opacity="0.45"/>
<stop offset="1" stop-color="white" stop-opacity="0"/>
</linearGradient>
<linearGradient id="paint3_linear_68_127" x1="428.48" y1="29.3399" x2="498.07" y2="29.3399" gradientUnits="userSpaceOnUse">
<stop offset="0.18" stop-color="white"/>
<stop offset="0.64" stop-color="white" stop-opacity="0.45"/>
<stop offset="1" stop-color="white" stop-opacity="0"/>
</linearGradient>
<linearGradient id="paint4_linear_68_127" x1="884.92" y1="219.28" x2="921.44" y2="219.28" gradientUnits="userSpaceOnUse">
<stop stop-color="white" stop-opacity="0"/>
<stop offset="0.36" stop-color="white" stop-opacity="0.45"/>
<stop offset="0.82" stop-color="white"/>
</linearGradient>
<linearGradient id="paint5_linear_68_127" x1="874.93" y1="94.8599" x2="921.62" y2="94.8599" gradientUnits="userSpaceOnUse">
<stop stop-color="white" stop-opacity="0"/>
<stop offset="0.36" stop-color="white" stop-opacity="0.45"/>
<stop offset="0.82" stop-color="white"/>
</linearGradient>
<linearGradient id="paint6_linear_68_127" x1="0.61" y1="528.96" x2="354.56" y2="528.96" gradientUnits="userSpaceOnUse">
<stop offset="0.18" stop-color="white"/>
<stop offset="0.64" stop-color="white" stop-opacity="0.45"/>
<stop offset="1" stop-color="white" stop-opacity="0"/>
</linearGradient>
<linearGradient id="paint7_linear_68_127" x1="1.31" y1="912.46" x2="173.69" y2="912.46" gradientUnits="userSpaceOnUse">
<stop offset="0.18" stop-color="white"/>
<stop offset="0.64" stop-color="white" stop-opacity="0.45"/>
<stop offset="1" stop-color="white" stop-opacity="0"/>
</linearGradient>
<linearGradient id="paint8_linear_68_127" x1="83.7699" y1="2298.41" x2="83.7699" y2="1326.71" gradientUnits="userSpaceOnUse">
<stop stop-color="#D0F4F7"/>
<stop offset="0.13" stop-color="#C8ECE2"/>
<stop offset="0.37" stop-color="#BDDFC1"/>
<stop offset="0.6" stop-color="#B4D7AA"/>
<stop offset="0.82" stop-color="#AFD19B"/>
<stop offset="1" stop-color="#AED097"/>
</linearGradient>
<linearGradient id="paint9_linear_68_127" x1="428.63" y1="1744.67" x2="437.79" y2="2101.87" gradientUnits="userSpaceOnUse">
<stop stop-color="#F4F2E9"/>
<stop offset="0.38" stop-color="#E7E0D4"/>
<stop offset="1" stop-color="#D6C7B6"/>
</linearGradient>
<linearGradient id="paint10_linear_68_127" x1="460.48" y1="-63.94" x2="460.48" y2="1972.72" gradientUnits="userSpaceOnUse">
<stop stop-color="#80B3F9" stop-opacity="0.2"/>
<stop offset="0.62" stop-color="#80B3F9" stop-opacity="0.71"/>
<stop offset="1" stop-color="#80B4F9"/>
</linearGradient>
<clipPath id="clip0_68_127">
<rect width="920.96" height="1994.18" fill="white"/>
</clipPath>
</defs>
</svg>
